X:1
T:Voi pur da me
T:Voi pur da me
T:Piero Benedetti
T:Source : Musische di Piero Benedetti---Fiorenza---Heredes di C.Marescotti---1611. Editor : André Vierendeels (23/05/15).
T:Notes : Original clefs : C1, F4 Figures in BC are notated in original print
C:Piero Benedetti
%%score 1 2
L:1/8
Q:1/4=80
M:4/4
K:C
V:1 treble nm="Soprano" snm="S"
V:2 bass nm="BC" snm="BC"
V:1
 d4 cBBA | B4 B4 | z2 c4 de | B4 B4 | z2 cc c4- | c2 Bd ^G4 | ^G4 z2 e2 | ^F4 z Adc | B2 A2 z2 e2 | %9
w: Voi pur da me par-|ti- te,|A- ni- ma|mi- a,|ne vi duol|_ il par- ti-|re. Ohi-|me quest' el mo-|ri- re cru-|
 ^c4 z A d2- | d2 c/d/e/B/ c/A/B/c/ B/c/d/c/ | B8 | A8 | A4 EEEE | ^F4 d4 | AAAA B2 B2- | %16
w: del è voi|_ gio- * * * * * * * * * * *||ie,|quest' è vin- cin' ha-|ver, quest'|è vin- cin' ha- ver l'o-|
 B2 AG A4 | A2 z B c4 | z ecd B4 | A8 |: c6 dA | B4 B4 | e6 fc | d4 d2 dB | d6 B2 | A4 A4 | %26
w: * ra su- pre-|ma, è voi|non la sen- ti-|te:|O me- ra-|vi- glia,|O me- ra-|vi- glia di du-|rez za'e-|stre- ma:|
 d3 c B2 AG | B4 B4 | z Bcd e2 e2 | z GGG G4- | G2 F2 E4 |1 D8 :|2 D4 z ABc || d4 d4 | z ccc c4- | %35
w: es- ser al- ma d'un|co- re|e se- pa- rar- si|e non sen- tir|_ do- lo-|re.|re, e se- pa-|rar- si,|e non sen- tir|
 c2 _B2 A4 | G8 |] %37
w: _ do- lo-|re.|
V:2
 G,,8 | G,8 | F,4 E,4 | G,8 | E,8 | ^C,4 E,4 | E,4 A,,4 |"^#" D,4 D,4 |"^#" D,4 ^C,4- | %9
"^#" C,4 D,4 | A,,8 |"^4""^#" E,4 E,4 |"^#" A,,8 |"^#" A,,8 |"^#" D,8 |"^#" D,4 G,4 | %16
"^#" B,,4 D,4 |"^#" D,4 A,,4 |"^4""^#" A,,4 E,2 E,2 |"^#" A,,8 |: A,2 G,/F,/E, F,4 | E,8 | %22
 C2 B,/A,/G, A,4 | G,4 G,4- | G,2 E,2 ^C,4 |"^#" D,8 |"^#" D,8 | G,,8 | G,4 C,4 | C,6 _B,,2 | %30
"^#""^4""^#" A,,2 A,,4 A,,2 |1"^#" D,8 :|2"^#" D,8 ||"^#" z D,E,^F, G,4 | E,4 F,2 _E,2 | %35
"^#""^4""^#" D,2 D,4 D,2 | G,,8 |] %37

